X: 144114
T: HORNPIPE
R: Hornpipe.
%R: hornpipe, reel
B: James Kerr "Merry Melodies" v.1 p.44 s.1 #14
Z: 2016 John Chambers <jc:trillian.mit.edu>
M: C
L: 1/8
K: G
(ga) |\
bgdB GBag | fecA E2(fe) |\
dcAF DcBA | GBcd efga |\
bgdB GBag | fecA E2(fe) |\
dcAF DcBA | G2g2g2 H:|
|: (3(gag) |\
fe^cA ^GABc | defg ^gaba |\
agec Agfe | fdAF D2 (3(gag) |\
fe^cA ^GABc | defg ^gaba |\
agec Agfe | d2d2"_D.C."d2 :|

%%sep 1 1 500
%%sep 1 1 500

